build/images/health.svg

<svg width="91" height="91" viewBox="0 0 91 91" fill="none" xmlns="http://www.w3.org/2000/svg">
<rect width="91" height="91" rx="45.5" fill="#FAC663"/>
<path d="M40.0743 37.7748C39.8228 38.3679 39.6971 38.9946 39.7005 39.6378C39.7074 40.9303 40.2468 42.1561 41.2193 43.0896C42.1922 44.0233 43.4889 44.5591 44.8705 44.5983C45.9488 44.6283 47.012 44.3517 47.9137 43.8114C48.7705 44.3248 49.7728 44.6007 50.7959 44.6007C50.8495 44.6007 50.9032 44.5999 50.957 44.5984C52.3246 44.5597 53.612 44.0328 54.5821 43.1151C55.552 42.1974 56.1004 40.9876 56.1261 39.7084C56.1423 38.9084 55.9616 38.1408 55.5891 37.4271C55.2482 36.7739 52.4888 33.9443 51.5131 32.907C51.2686 32.6471 51.9251 33.5556 51.6474 33.7841C51.3695 34.0125 50.465 33.6497 50.7093 33.9095C51.5925 34.8486 54.1009 37.433 54.3847 37.9767C54.6633 38.5104 54.7984 39.0851 54.7863 39.6848C54.7461 41.6774 53.0462 43.2856 50.9164 43.346C49.9822 43.3731 49.0619 43.0902 48.3277 42.551C48.0847 42.3726 47.7428 42.3726 47.4998 42.551C46.7656 43.0902 45.8454 43.3725 44.9111 43.346C42.7875 43.2858 41.0511 41.6195 41.0405 39.6317C41.0379 39.1495 41.1319 38.6801 41.3199 38.2366C41.7546 37.2115 42.6945 36.0524 44.4628 34.361C46.124 32.772 48.8093 32.5779 50.7093 33.9095C51.0054 34.117 51.4254 34.0609 51.6474 33.7841C51.8693 33.5072 51.8092 33.1146 51.5131 32.907C49.0771 31.1996 45.6341 31.4481 43.5045 33.4851C41.579 35.3268 40.5852 36.5697 40.0743 37.7748Z" fill="#FFFDFB"/>
<path d="M44.3773 31.4757C46.0994 31.4757 47.5003 29.7989 47.5003 27.7379C47.5003 25.6769 46.0994 24 44.3773 24C42.6553 24 41.2543 25.6767 41.2543 27.7378C41.2543 29.7989 42.6553 31.4757 44.3773 31.4757ZM44.3773 25.253C45.3437 25.253 46.1602 26.3909 46.1602 27.7378C46.1602 29.0847 45.3437 30.2226 44.3773 30.2226C43.411 30.2226 42.5944 29.0847 42.5944 27.7378C42.5945 26.3909 43.411 25.253 44.3773 25.253Z" fill="#FFFDFB"/>
<path d="M44.3773 25.253C45.3437 25.253 46.1602 26.3909 46.1602 27.7378C46.1602 29.0847 45.3437 30.2226 44.3773 30.2226C43.411 30.2226 42.5944 29.0847 42.5944 27.7378C42.5945 26.3909 43.411 25.253 44.3773 25.253Z" fill="#FFFDFB"/>
<path d="M37.9787 35.9551C39.3684 35.9551 40.457 34.6725 40.457 33.0351C40.457 31.3977 39.3684 30.1151 37.9787 30.1151C36.589 30.1151 35.5005 31.3977 35.5005 33.0351C35.5005 34.6725 36.589 35.9551 37.9787 35.9551ZM37.9787 31.3681C38.5957 31.3681 39.1169 32.1315 39.1169 33.0351C39.1169 33.9388 38.5957 34.7022 37.9787 34.7022C37.3618 34.7022 36.8406 33.9388 36.8406 33.0351C36.8406 32.1315 37.3618 31.3681 37.9787 31.3681Z" fill="#FFFDFB"/>
<path d="M37.9787 31.3681C38.5957 31.3681 39.1169 32.1315 39.1169 33.0351C39.1169 33.9388 38.5957 34.7022 37.9787 34.7022C37.3618 34.7022 36.8406 33.9388 36.8406 33.0351C36.8406 32.1315 37.3618 31.3681 37.9787 31.3681Z" fill="#FFFDFB"/>
<path d="M57.5937 35.9551C58.9834 35.9551 60.072 34.6725 60.072 33.0351C60.072 31.3977 58.9834 30.1151 57.5937 30.1151C56.204 30.1151 55.1155 31.3977 55.1155 33.0351C55.1155 34.6725 56.204 35.9551 57.5937 35.9551ZM57.5937 31.3681C58.2107 31.3681 58.7319 32.1315 58.7319 33.0351C58.7319 33.9388 58.2107 34.7022 57.5937 34.7022C56.9768 34.7022 56.4556 33.9388 56.4556 33.0351C56.4556 32.1315 56.9768 31.3681 57.5937 31.3681Z" fill="#FFFDFB"/>
<path d="M57.5937 31.3681C58.2107 31.3681 58.7319 32.1315 58.7319 33.0351C58.7319 33.9388 58.2107 34.7022 57.5937 34.7022C56.9768 34.7022 56.4556 33.9388 56.4556 33.0351C56.4556 32.1315 56.9768 31.3681 57.5937 31.3681Z" fill="#FFFDFB"/>
<path d="M52.2188 31.4757C53.9409 31.4757 55.3419 29.7989 55.3419 27.7379C55.3419 25.6769 53.9409 24 52.2188 24C50.4968 24 49.0958 25.6767 49.0958 27.7378C49.0958 29.7989 50.4968 31.4757 52.2188 31.4757ZM52.2188 25.253C53.1852 25.253 54.0018 26.3909 54.0018 27.7378C54.0018 29.0847 53.1853 30.2226 52.2188 30.2226C51.2524 30.2226 50.4359 29.0847 50.4359 27.7378C50.4359 26.3909 51.2523 25.253 52.2188 25.253Z" fill="#FFFDFB"/>
<path d="M52.2188 25.253C53.1852 25.253 54.0018 26.3909 54.0018 27.7378C54.0018 29.0847 53.1853 30.2226 52.2188 30.2226C51.2524 30.2226 50.4359 29.0847 50.4359 27.7378C50.4359 26.3909 51.2523 25.253 52.2188 25.253Z" fill="#FFFDFB"/>
<path d="M64.9483 43.9384C64.269 43.3034 63.3659 42.9535 62.4052 42.9535C61.4446 42.9535 60.5413 43.3034 59.862 43.9384L55.9184 47.6255C55.26 46.9476 54.3102 46.5212 53.2559 46.5212H47.6072C47.2372 46.5212 48.3143 46.8017 48.3143 47.1477C48.3143 47.4936 47.2372 47.7741 47.6072 47.7741H53.2559C54.5002 47.7741 55.5125 48.7206 55.5125 49.884C55.5125 51.0473 54.5002 51.9938 53.2559 51.9938H47.6072C47.2372 51.9938 46.9372 52.2743 46.9372 52.6203C46.9372 52.9663 47.2372 53.2468 47.6072 53.2468H53.2559C55.2391 53.2468 56.8526 51.7383 56.8526 49.884C56.8526 49.4777 56.775 49.088 56.6332 48.7272C56.6409 48.7206 56.6489 48.7145 56.6563 48.7076L60.8096 44.8244C61.6894 44.0018 63.121 44.0018 64.0008 44.8244C64.8806 45.6471 64.8806 46.9855 64.0008 47.8081L55.6742 55.5933H47.9949C47.6249 55.5933 48.3143 55.8738 48.3143 56.2198C48.3143 56.5658 47.9443 56.8463 48.3143 56.8463H55.9518C56.1294 56.8463 56.2999 56.7803 56.4255 56.6628L64.9483 48.6941C66.3506 47.3831 66.3506 45.2497 64.9483 43.9384Z" fill="#FFFDFB"/>
<path d="M48.4859 55.5934H45.4355C45.2592 55.5934 45.09 55.6583 44.9646 55.7742L42.8577 57.7198L37.7092 52.9061C37.6106 52.5627 37.5608 52.208 37.5608 51.8495C37.5608 49.608 39.5111 47.7844 41.9086 47.7844C41.9482 47.7844 41.9869 47.7806 42.0247 47.7744H47.9142C48.2842 47.7744 48.5842 47.4939 48.5842 47.1479C48.5842 46.8019 48.2842 46.5214 47.9142 46.5214H41.3785C41.2701 46.5214 41.168 46.546 41.0775 46.5888C38.3914 46.9582 36.3115 49.0892 36.2252 51.6822L35.6836 51.1759C35.422 50.9312 34.9977 50.9312 34.7361 51.1759L31.186 54.4952C31.1631 54.5165 31.143 54.5393 31.1243 54.5628L25.1809 60.7796C25.0714 60.8941 25.0107 61.0423 25.0105 61.1959L25 66.3436C24.9993 66.6894 25.2983 66.9703 25.6682 66.9713L36.7102 67H36.7121C36.8898 67 37.0602 66.934 37.1859 66.8165L44.3252 60.1413C44.4509 60.0239 44.5215 59.8645 44.5215 59.6983C44.5215 59.5322 44.4509 59.3728 44.3252 59.2554L43.7175 58.6872L45.7108 56.8465H48.4862C48.8562 56.8465 49.1562 56.566 49.1562 56.22C49.1559 55.8739 48.8559 55.5934 48.4859 55.5934ZM36.4351 65.7462L26.3412 65.7199L26.3499 61.4366L31.6893 55.8517L39.3535 63.0176L36.4351 65.7462ZM40.3419 62.0934L32.6481 54.8998L35.2098 52.5047L42.9036 59.6983L40.3419 62.0934Z" fill="#FFFDFB"/>
</svg>

<svg width="91" height="91" fill="none" xmlns="http://www.w3.org/2000/svg"><rect width="91" height="91" rx="45.5" fill="#FAC663"/><path d="M40.074 37.775a4.682 4.682 0 00-.373 1.863c.006 1.292.546 2.518 1.518 3.452a5.478 5.478 0 003.651 1.508 5.634 5.634 0 003.044-.787 5.623 5.623 0 003.043.787 5.485 5.485 0 003.625-1.483c.97-.918 1.518-2.127 1.544-3.407a4.673 4.673 0 00-.537-2.28c-.34-.654-3.1-3.484-4.076-4.521-.244-.26.412.649.134.877-.277.229-1.182-.134-.938.126.883.939 3.392 3.523 3.676 4.067.278.533.413 1.108.401 1.708-.04 1.992-1.74 3.6-3.87 3.661a4.186 4.186 0 01-2.588-.795.707.707 0 00-.828 0 4.19 4.19 0 01-2.589.795c-2.123-.06-3.86-1.726-3.87-3.714a3.506 3.506 0 01.279-1.395c.435-1.026 1.374-2.185 3.143-3.876 1.661-1.589 4.346-1.783 6.246-.451a.701.701 0 00.938-.126.6.6 0 00-.134-.877c-2.436-1.707-5.879-1.459-8.008.578-1.926 1.842-2.92 3.085-3.43 4.29zm4.303-6.299c1.722 0 3.123-1.677 3.123-3.738S46.1 24 44.377 24c-1.722 0-3.123 1.677-3.123 3.738 0 2.06 1.401 3.738 3.123 3.738zm0-6.223c.967 0 1.783 1.138 1.783 2.485s-.816 2.485-1.783 2.485c-.966 0-1.783-1.138-1.783-2.485s.817-2.485 1.783-2.485z" fill="#FFFDFB"/><path d="M44.377 25.253c.967 0 1.783 1.138 1.783 2.485s-.816 2.485-1.783 2.485c-.966 0-1.783-1.138-1.783-2.485s.817-2.485 1.783-2.485zm-6.398 10.702c1.39 0 2.478-1.282 2.478-2.92 0-1.637-1.089-2.92-2.478-2.92-1.39 0-2.478 1.283-2.478 2.92 0 1.638 1.088 2.92 2.478 2.92zm0-4.587c.617 0 1.138.764 1.138 1.667 0 .904-.521 1.667-1.138 1.667-.617 0-1.138-.763-1.138-1.667 0-.903.52-1.667 1.138-1.667z" fill="#FFFDFB"/><path d="M37.979 31.368c.617 0 1.138.764 1.138 1.667 0 .904-.521 1.667-1.138 1.667-.617 0-1.138-.763-1.138-1.667 0-.903.52-1.667 1.138-1.667zm19.615 4.587c1.39 0 2.478-1.282 2.478-2.92 0-1.637-1.089-2.92-2.478-2.92-1.39 0-2.479 1.283-2.479 2.92 0 1.638 1.089 2.92 2.479 2.92zm0-4.587c.617 0 1.138.764 1.138 1.667 0 .904-.521 1.667-1.138 1.667-.617 0-1.138-.763-1.138-1.667 0-.903.52-1.667 1.138-1.667z" fill="#FFFDFB"/><path d="M57.594 31.368c.617 0 1.138.764 1.138 1.667 0 .904-.521 1.667-1.138 1.667-.617 0-1.138-.763-1.138-1.667 0-.903.52-1.667 1.138-1.667zm-5.375.108c1.722 0 3.123-1.677 3.123-3.738S53.94 24 52.219 24c-1.722 0-3.123 1.677-3.123 3.738 0 2.06 1.4 3.738 3.123 3.738zm0-6.223c.966 0 1.783 1.138 1.783 2.485s-.817 2.485-1.783 2.485c-.967 0-1.783-1.138-1.783-2.485s.816-2.485 1.783-2.485z" fill="#FFFDFB"/><path d="M52.219 25.253c.966 0 1.783 1.138 1.783 2.485s-.817 2.485-1.783 2.485c-.967 0-1.783-1.138-1.783-2.485s.816-2.485 1.783-2.485zm12.729 18.685a3.703 3.703 0 00-2.543-.985c-.96 0-1.864.35-2.543.985l-3.944 3.688a3.704 3.704 0 00-2.662-1.105h-5.649c-.37 0 .707.28.707.627 0 .346-1.077.626-.707.626h5.649c1.244 0 2.257.947 2.257 2.11 0 1.163-1.013 2.11-2.257 2.11h-5.649c-.37 0-.67.28-.67.626s.3.627.67.627h5.649c1.983 0 3.597-1.509 3.597-3.363 0-.406-.078-.796-.22-1.157a.143.143 0 00.023-.02l4.154-3.883c.88-.822 2.311-.822 3.19 0 .88.823.88 2.162 0 2.984l-8.326 7.785h-7.68c-.37 0 .32.28.32.627 0 .346-.37.626 0 .626h7.638a.694.694 0 00.474-.183l8.522-7.969c1.403-1.31 1.403-3.444 0-4.756z" fill="#FFFDFB"/><path d="M48.486 55.593h-3.05a.694.694 0 00-.471.181l-2.107 1.946-5.149-4.814a3.823 3.823 0 01-.148-1.056c0-2.242 1.95-4.066 4.348-4.066.04 0 .078-.003.116-.01h5.89c.37 0 .67-.28.67-.626s-.3-.627-.67-.627h-6.536a.703.703 0 00-.301.068c-2.687.37-4.767 2.5-4.853 5.093l-.541-.506a.703.703 0 00-.948 0l-3.55 3.32a.61.61 0 00-.062.067l-5.943 6.217a.603.603 0 00-.17.416L25 66.344c0 .345.298.626.668.627L36.71 67h.002a.694.694 0 00.474-.183l7.14-6.676a.606.606 0 00.196-.443.606.606 0 00-.197-.443l-.608-.568 1.994-1.84h2.775c.37 0 .67-.281.67-.627s-.3-.627-.67-.627zm-12.05 10.153L26.34 65.72l.009-4.283 5.34-5.585 7.663 7.166-2.918 2.728zm3.906-3.653L32.648 54.9l2.562-2.395 7.694 7.193-2.562 2.395z" fill="#FFFDFB"/></svg>
